X:1
T:Scottish efter Emil Carstedt
R:Schottis
O:Stensele, Västerbotten
N:Från Spillefolk
S:Emil Carstedt
L: 1/16
Q:1/4=80
K:A
M: 2/4
C|"A"E2TF2 E2CE|A2A2 "E"G3F|"E"TF2E2 G3F|"A"TF2E2 A3C|
"A"E2TF2 E2CE|A2A2 "E"G3F| "E"TF2E2 c3G|"A"B2A2 A3:|
|:B|"A"Tc2E2 Tc2E2| Tc2B2 A2Bc|"D"Td2F2 Td2F2| Td2c2 "Bm"B3c|
"E"B2EG B2EG| B2A2 G3F|E>FG>A B>cB>G|"A"A2A2 A3:|

